svgs/sharp-regular/up-to-line.svg

<svg xmlns="http://www.w3.org/2000/svg" viewBox="0 0 384 512"><!--! Font Awesome Pro 6.6.0 by @fontawesome - https://fontawesome.com License - https://fontawesome.com/license (Commercial License) Copyright 2024 Fonticons, Inc. --><path d="M224 352l0-48 48 0 28.1 0L192 195.9 83.9 304l28.1 0 48 0 0 48 0 80 64 0 0-80zm1.9-190.1L352 288l0 16 0 48-32 0-16 0-32 0 0 48 0 32 0 48-48 0-64 0-48 0 0-48 0-32 0-48-32 0-16 0-32 0 0-48 0-16L158.1 161.9 192 128l33.9 33.9zM24 80L0 80 0 32l24 0 336 0 24 0 0 48-24 0L24 80z"/></svg>

<svg xmlns="http://www.w3.org/2000/svg" viewBox="0 0 384 512"><!--! Font Awesome Pro 6.4.2 by @fontawesome - https://fontawesome.com License - https://fontawesome.com/license (Commercial License) Copyright 2023 Fonticons, Inc. --><path d="M224 352V304h48 28.1L192 195.9 83.9 304H112h48v48 80h64V352zm1.9-190.1L352 288v16 48H320 304 272v48 32 48H224 160 112V432 400 352H80 64 32V304 288L158.1 161.9 192 128l33.9 33.9zM24 80H0V32H24 360h24V80H360 24z"/></svg>
